X:1
T:The Two Sisters
M:6/8
L:1/8
K:F
 D| DGG GGF| GGA B3| F3- F3| D3- D2 D| DGG GGF| GGA B2 c| d2 c B2 c|\
 d3- d2 c| ddd ffd| ccc c2 A| B2 B B2 G| A2 A A2- F| G2 G GGG| d3- d2 A/2A/2|\
 ccc A2 F| G3- G2||
